X: 1
T: Larry Nugent's
M: 4/4
L: 1/8
R: hornpipe
K: Gmaj
g2 ga g2 fd | cAGF GABc |dgfd cdAG | FAde =f2 ed |
dg (3fga g2 fd | cAGF GABc | dGBd cDFA |1 ADFD G2 (3Bcd :|2 ADFA G2 AG ||
FGAB cABc | dg (3ggg b2 af | g2 ga (3bag (3agf | gfdc d3 c |
BE (3EEE cEGc | BG (3GGG FDBA | G2 (3efg fdcA |1 AGFD G2 AG :|2 AGFD G4 ||
